svg/u1f496.svg

<svg viewBox="0 0 128 128" xmlns="http://www.w3.org/2000/svg">
  <g>
    <path d="M93.96,8.96C72.05,8.96,64,31.34,64,31.34S56.06,8.96,33.99,8.96c-16.58,0-35.48,13.14-28.5,43.01 c6.98,29.87,58.56,67.08,58.56,67.08s51.39-37.21,58.38-67.08C129.41,22.1,111.87,8.96,93.96,8.96z" fill="#EF5592"/>
    <g>
      <path d="M30.61,11.19c17.2,0,25.74,18.49,28.5,25.98c0.39,1.07,1.88,1.1,2.33,0.06l2.52-5.88 C60.41,20,50.65,8.96,33.99,8.96c-6.9,0-14.19,2.28-19.86,7.09C19.14,12.76,25.01,11.19,30.61,11.19z" fill="#DA2E75"/>
      <path d="M93.96,8.96c-5.29,0-9.77,1.54-13.53,3.85c2.64-1.02,5.56-1.62,8.8-1.62 c16.21,0,30.72,12.29,24.17,40.7c-5.62,24.39-38.46,53.98-48.49,65.27c-0.64,0.72-0.86,1.88-0.86,1.88s51.39-37.21,58.38-67.08 C129.41,22.1,110.53,8.96,93.96,8.96z" fill="#DA2E75"/>
    </g>
    <path d="M17,24.82c3.75-4.68,10.45-8.55,16.13-4.09c3.07,2.41,1.73,7.35-1.02,9.43 c-4,3.04-7.48,4.87-9.92,9.63c-1.46,2.86-2.34,5.99-2.79,9.18c-0.18,1.26-1.83,1.57-2.45,0.46C12.73,41.94,11.53,31.64,17,24.82 z" fill="#F386AB"/>
  </g>
  <circle cx="74.03" cy="88.49" fill="#FDD835" r="3.6"/>
  <circle cx="77.63" cy="44.27" fill="#FFF891" r="4.28"/>
  <rect fill="#FFF891" height="9.81" transform="matrix(0.7071 -0.7071 0.7071 0.7071 -26.1349 85.4087)" width="9.81" x="85.12" y="69.35"/>
  <g>
    <path d="M65.43,74.89l-7.81-2.52c-5-1.65-7.92-5.69-9.29-10.77L44.9,44.87c-0.09-0.33-0.41-0.56-0.98-0.56 c-0.57,0-0.89,0.23-0.98,0.56l-3.43,16.74c-1.38,5.08-4.3,9.12-9.29,10.77l-7.81,2.52c-1.11,0.36-1.12,1.92-0.02,2.29l7.86,2.71 c4.98,1.65,7.88,5.69,9.26,10.75l3.44,16.55c0.09,0.33,0.4,0.55,0.98,0.55s0.89-0.23,0.98-0.55l3.44-16.55 c1.38-5.06,4.28-9.09,9.26-10.75l7.86-2.71C66.56,76.81,66.54,75.25,65.43,74.89z" fill="#FDD835"/>
    <path d="M66.18,75.59c-0.12-0.31-0.36-0.58-0.74-0.7l-7.81-2.52c-5-1.65-7.92-5.69-9.29-10.77L44.9,44.87 c-0.05-0.19-0.19-0.34-0.39-0.44l1.07,16.6c0.82,7.67,1.53,11.28,7.65,12.33C58.48,74.27,64.56,75.31,66.18,75.59z" fill="#FFF176"/>
    <path d="M66.19,76.46l-13.54,3.11c-4.77,1.21-7.4,3.98-7.4,11.2l-1.14,16.95c0.46-0.05,0.71-0.25,0.79-0.53 l3.44-16.55c1.38-5.06,4.28-9.09,9.26-10.75l7.86-2.71C65.84,77.06,66.07,76.78,66.19,76.46z" fill="#F4B400"/>
  </g>
  <g>
    <path d="M109.55,25.17c-6.09-2.01-6.64-4.28-7.67-8.09L99.33,5.07c-0.15-0.58-1.66-0.58-1.82,0l-1.73,11.33 c-1.03,3.8-3.22,6.83-6.96,8.07l-6.69,2.59c-0.83,0.27-0.84,1.44-0.02,1.72l6.73,2.12c3.73,1.24,5.91,4.26,6.94,8.05l1.73,10.96 c0.16,0.57,1.66,0.57,1.81,0l2.03-10.93c1.03-3.82,2.6-6.85,7.67-8.09l6.37-2.13c0.83-0.28,0.82-1.45-0.01-1.72L109.55,25.17z" fill="#FDD835"/>
    <path d="M99.82,16.95c0.62,5.74,0.94,7.34,5.59,8.52l10.43,1.89c-0.1-0.14-0.25-0.25-0.45-0.32l-5.84-1.88 c-5.34-1.83-6.7-3.92-7.81-8.79l-2.4-11.3c-0.05-0.2-0.18-0.32-0.34-0.38L99.82,16.95z" fill="#FFF176"/>
    <path d="M99.99,36.99c0-5.42,2.96-8.09,7.67-8.09l8.05-0.3c-0.1,0.14-0.63,0.28-0.82,0.35l-5.33,1.85 c-4.46,1.2-6.41,2.55-7.67,8.09l-2.55,11.02c-0.05,0.2-0.18,0.33-0.34,0.39L99.99,36.99z" fill="#F4B400"/>
  </g>
</svg>

<svg viewBox="0 0 128 128" xmlns="http://www.w3.org/2000/svg">
  <defs/>
  <path d="M93.96,8.96 C72.05,8.96 64,31.34 64,31.34 C64,31.34 56.06,8.96 33.99,8.96 C17.41,8.96 -1.49,22.1 5.49,51.97 C12.47,81.84 64.05,119.05 64.05,119.05 C64.05,119.05 115.44,81.84 122.43,51.97 C129.41,22.1 111.87,8.96 93.96,8.96 Z" fill="#EF5592"/>
  <path d="M30.61,11.19 C47.81,11.19 56.35,29.68 59.11,37.17 C59.5,38.24 60.99,38.27 61.44,37.23 L63.96,31.35 C60.41,20 50.65,8.96 33.99,8.96 C27.09,8.96 19.8,11.24 14.13,16.05 C19.14,12.76 25.01,11.19 30.61,11.19 Z" fill="#DA2E75"/>
  <path d="M93.96,8.96 C88.67,8.96 84.19,10.5 80.43,12.81 C83.07,11.79 85.99,11.19 89.23,11.19 C105.44,11.19 119.95,23.48 113.4,51.89 C107.78,76.28 74.94,105.87 64.91,117.16 C64.27,117.88 64.05,119.04 64.05,119.04 C64.05,119.04 115.44,81.83 122.43,51.96 C129.41,22.1 110.53,8.96 93.96,8.96 Z" fill="#DA2E75"/>
  <path d="M17,24.82 C20.75,20.14 27.45,16.27 33.13,20.73 C36.2,23.14 34.86,28.08 32.11,30.16 C28.11,33.2 24.63,35.03 22.19,39.79 C20.73,42.65 19.85,45.78 19.4,48.97 C19.22,50.23 17.57,50.54 16.95,49.43 C12.73,41.94 11.53,31.64 17,24.82 Z" fill="#F386AB"/>
  <path d="M77.63,88.49 A3.6 3.6 0 1 1 70.43,88.49 A3.6 3.6 0 1 1 77.63,88.49 Z" fill="#FDD835"/>
  <path d="M81.91,44.27 A4.28 4.28 0 1 1 73.35,44.27 A4.28 4.28 0 1 1 81.91,44.27 Z" fill="#FFF891"/>
  <path d="M83.091,74.258 L90.027,67.321 L96.964,74.258 L90.027,81.194 L83.091,74.258 Z" fill="#FFF891"/>
  <path d="M65.43,74.89 L57.62,72.37 C52.62,70.72 49.7,66.68 48.33,61.6 L44.9,44.87 C44.81,44.54 44.49,44.31 43.92,44.31 C43.35,44.31 43.03,44.54 42.94,44.87 L39.51,61.61 C38.13,66.69 35.21,70.73 30.22,72.38 L22.41,74.9 C21.3,75.26 21.29,76.82 22.39,77.19 L30.25,79.9 C35.23,81.55 38.13,85.59 39.51,90.65 L42.95,107.2 C43.04,107.53 43.35,107.75 43.93,107.75 C44.51,107.75 44.82,107.52 44.91,107.2 L48.35,90.65 C49.73,85.59 52.63,81.56 57.61,79.9 L65.47,77.19 C66.56,76.81 66.54,75.25 65.43,74.89 Z" fill="#FDD835"/>
  <path d="M66.18,75.59 C66.06,75.28 65.82,75.01 65.44,74.89 L57.63,72.37 C52.63,70.72 49.71,66.68 48.34,61.6 L44.9,44.87 C44.85,44.68 44.71,44.53 44.51,44.43 L45.58,61.03 C46.4,68.7 47.11,72.31 53.23,73.36 C58.48,74.27 64.56,75.31 66.18,75.59 Z" fill="#FFF176"/>
  <path d="M66.19,76.46 L52.65,79.57 C47.88,80.78 45.25,83.55 45.25,90.77 L44.11,107.72 C44.57,107.67 44.82,107.47 44.9,107.19 L48.34,90.64 C49.72,85.58 52.62,81.55 57.6,79.89 L65.46,77.18 C65.84,77.06 66.07,76.78 66.19,76.46 Z" fill="#F4B400"/>
  <path d="M109.55,25.17 C103.46,23.16 102.91,20.89 101.88,17.08 L99.33,5.07 C99.18,4.49 97.67,4.49 97.51,5.07 L95.78,16.4 C94.75,20.2 92.56,23.23 88.82,24.47 L82.13,27.06 C81.3,27.33 81.29,28.5 82.11,28.78 L88.84,30.9 C92.57,32.14 94.75,35.16 95.78,38.95 L97.51,49.91 C97.67,50.48 99.17,50.48 99.32,49.91 L101.35,38.98 C102.38,35.16 103.95,32.13 109.02,30.89 L115.39,28.76 C116.22,28.48 116.21,27.31 115.38,27.04 L109.55,25.17 Z" fill="#FDD835"/>
  <path d="M99.82,16.95 C100.44,22.69 100.76,24.29 105.41,25.47 L115.84,27.36 C115.74,27.22 115.59,27.11 115.39,27.04 L109.55,25.16 C104.21,23.33 102.85,21.24 101.74,16.37 L99.34,5.07 C99.29,4.87 99.16,4.75 99,4.69 L99.82,16.95 Z" fill="#FFF176"/>
  <path d="M99.99,36.99 C99.99,31.57 102.95,28.9 107.66,28.9 L115.71,28.6 C115.61,28.74 115.08,28.88 114.89,28.95 L109.56,30.8 C105.1,32 103.15,33.35 101.89,38.89 L99.34,49.91 C99.29,50.11 99.16,50.24 99,50.3 L99.99,36.99 Z" fill="#F4B400"/>
</svg>
